X:91
T:Prince of Brunswick's. ThoH.091, The
Q:1/2=90
M:C
L:1/8
B:Thompson's Compleat Collection of 120 Favourite Hornpipes.
Z:Village Music Project, Simon Wilson 2016
O:England.
K:D
d2fd|a4(gf).e.d|(dc).B.A (cB).d.B|(BA).d.A (GF).E.D|DCB,A,F2F2|
{F}TE3FG2G2|{G}F4f2f2|{f}Te3fg2g2|{g}f4Bdce|dABG FACE|D4:|
|:(fd).c.B|(A^G).F.E (FA).G.B|(Ac).B.d cedf|ea^gb aedc|{c}B4(ec).f.e|(ed)(cd) (Bdb).d|
(dc).B.c (ae).d.c|fdcB ce^GB|{B}A4FDAD|GDBD ADAF|GDB,G, ^GEBE|AEcE BEB^G|
AECA, (Ac).e.g|(Ad).f.a gfed|cBAG[d2F2]fd|a4(gf).e.d|(dc).B.A (cB).d.B|
(BA).d.A (GF).E.D|DCB,A,F2F2|{F}TE3FG2G2|{G}F4f2f2|{f}Te3fg2g2|{g}f4Bdce|dABG FACE|D4:|
|:(FA).^G.B|(BA).^G.A (E=G).F.A|(AG).F.G (BG).F.E|(AF).E.D (CB,).G.E|(DC).B,.A, (FA).^G.B|BA^GB E^GFA|
AGFG (Bd).c.e|dABG FACE|D2fd egce|d2fd egce|d2fad2fa|[f2A2]z2[f2A2]z2|[f4A4]:|

